icons/core/catalog.svg

<svg viewBox="0 0 32 32" xmlns="http://www.w3.org/2000/svg"><path fill-rule="evenodd" d="M6 4a2 2 0 012-2h18a2 2 0 012 2v24a2 2 0 01-2 2H8a2 2 0 01-2-2v-4H4v-2h2v-5H4v-2h2v-5H4V8h2V4zm2 11v-5h2V8H8V4h18v24H8v-4h2v-2H8v-5h2v-2H8zm6 9h8v-2h-8v2zm8-7h-8v-2h8v2zm-8-7h8V8h-8v2z"/></svg>

<svg width="32" height="32" viewBox="0 0 32 32" fill="none" xmlns="http://www.w3.org/2000/svg">
<path fill-rule="evenodd" clip-rule="evenodd" d="M6 4C6 2.89543 6.89543 2 8 2H26C27.1046 2 28 2.89543 28 4V28C28 29.1046 27.1046 30 26 30H8C6.89543 30 6 29.1046 6 28V24H4V22H6V17H4V15H6V10H4V8H6V4ZM8 15V10H10V8H8V4L26 4V28H8V24H10V22H8V17H10V15H8ZM14 24H22V22H14V24ZM22 17H14V15H22V17ZM14 10H22V8H14V10Z" fill="black"/>
</svg>
